svg/scale-out.svg

<?xml version="1.0" encoding="UTF-8"?>
<svg xmlns="http://www.w3.org/2000/svg" xmlns:xlink="http://www.w3.org/1999/xlink" width="32" height="32" viewBox="0 0 32 32">
<path fill-rule="nonzero" fill="rgb(0%, 0%, 0%)" fill-opacity="1" d="M 16 10.972656 L 12.113281 14.859375 L 15.199219 14.859375 L 15.199219 20.753906 L 16.800781 20.753906 L 16.800781 14.859375 L 19.886719 14.859375 Z M 19.3125 22.398438 L 12.6875 22.398438 C 11.867188 22.398438 11.199219 23.066406 11.199219 23.886719 L 11.199219 30.515625 C 11.199219 31.335938 11.867188 32 12.6875 32 L 19.316406 32 C 20.136719 32 20.800781 31.335938 20.800781 30.515625 L 20.800781 23.886719 C 20.800781 23.066406 20.132812 22.398438 19.3125 22.398438 M 8.113281 0 L 1.488281 0 C 1.09375 0 0.714844 0.15625 0.433594 0.433594 C 0.15625 0.714844 0 1.09375 0 1.488281 L 0 8.113281 C 0 8.933594 0.664062 9.601562 1.488281 9.601562 L 8.113281 9.601562 C 8.9375 9.601562 9.601562 8.933594 9.601562 8.113281 L 9.601562 1.488281 C 9.601562 0.664062 8.933594 0 8.113281 0 M 19.3125 0 L 12.6875 0 C 11.867188 0 11.199219 0.664062 11.199219 1.488281 L 11.199219 8.113281 C 11.199219 8.9375 11.867188 9.601562 12.6875 9.601562 L 19.316406 9.601562 C 20.136719 9.601562 20.800781 8.9375 20.800781 8.113281 L 20.800781 1.488281 C 20.800781 0.667969 20.132812 0 19.3125 0 M 30.511719 0 L 23.886719 0 C 23.066406 0 22.398438 0.664062 22.398438 1.488281 L 22.398438 8.113281 C 22.398438 8.9375 23.066406 9.601562 23.886719 9.601562 L 30.515625 9.601562 C 31.335938 9.601562 32 8.9375 32 8.113281 L 32 1.488281 C 32 1.09375 31.84375 0.714844 31.566406 0.433594 C 31.285156 0.15625 30.90625 0 30.511719 0 M 30.511719 0 "/>
</svg>

<svg role="img" viewBox="0 0 32 32" height="32" width="32" xmlns="http://www.w3.org/2000/svg"><path d="m16 10.973-3.887 3.886H15.2v5.895h1.602v-5.895h3.086Zm3.313 11.425h-6.625a1.49 1.49 0 0 0-1.489 1.489v6.629c0 .82.668 1.484 1.489 1.484h6.628c.82 0 1.485-.664 1.485-1.484v-6.63a1.49 1.49 0 0 0-1.488-1.488M8.113 0H1.488A1.5 1.5 0 0 0 .434.434C.156.714 0 1.094 0 1.488v6.625c0 .82.664 1.489 1.488 1.489h6.625c.825 0 1.489-.668 1.489-1.489V1.488C9.602.664 8.934 0 8.113 0m11.2 0h-6.625c-.82 0-1.489.664-1.489 1.488v6.625c0 .825.668 1.489 1.489 1.489h6.628c.82 0 1.485-.665 1.485-1.489V1.488A1.49 1.49 0 0 0 19.313 0m11.199 0h-6.625c-.82 0-1.489.664-1.489 1.488v6.625c0 .825.668 1.489 1.489 1.489h6.629c.82 0 1.484-.665 1.484-1.489V1.488a1.5 1.5 0 0 0-.434-1.054A1.503 1.503 0 0 0 30.512 0m0 0"/></svg>
